X:6411
T:Tailor's Twist, The
O:england
R:hornpipe
D:Paul McGrattan: The Frost is All Over
M:C|
K:D
FE|DAFD AFdA|Bged cbag|fedc Bged|cdBc AGFE|
DAFD AFdA|Bged ceag|fedc Bgec|d2dc d2:|
|:zb|~a3f deed|bagf eAce|~g3A (3Bcd ef|g2fg egfe|
d2dc dAFA|Bged ceag|fedc Bgec|d2dc d2:|


